assets/icons/qvision/directions_railway.svg

<svg xmlns="http://www.w3.org/2000/svg" height="24" viewBox="0 0 24 24" width="24"><path d="M0 0h24v24H0z" fill="none"/><path d="M4 15.5C4 17.43 5.57 19 7.5 19L6 20.5v.5h12v-.5L16.5 19c1.93 0 3.5-1.57 3.5-3.5V5c0-3.5-3.58-4-8-4s-8 .5-8 4v10.5zm8 1.5c-1.1 0-2-.9-2-2s.9-2 2-2 2 .9 2 2-.9 2-2 2zm6-7H6V5h12v5z"/></svg>

<svg width="24" height="24" viewBox="0 0 24 24" fill="none" xmlns="http://www.w3.org/2000/svg">
<g clip-path="url(#clip0_147_5205)">
<path d="M4 15.5C4 17.43 5.57 19 7.5 19L6 20.5V21H18V20.5L16.5 19C18.43 19 20 17.43 20 15.5V5C20 1.5 16.42 1 12 1C7.58 1 4 1.5 4 5V15.5ZM12 17C10.9 17 10 16.1 10 15C10 13.9 10.9 13 12 13C13.1 13 14 13.9 14 15C14 16.1 13.1 17 12 17ZM18 10H6V5H18V10Z" fill="#323232"/>
</g>
<defs>
<clipPath id="clip0_147_5205">
<rect width="24" height="24" fill="white"/>
</clipPath>
</defs>
</svg>
